assets/images/icons/set1/activity.svg

<svg xmlns="http://www.w3.org/2000/svg" width="28" height="28" xmlns:xlink="http://www.w3.org/1999/xlink">
  <use xlink:href="#a" transform="translate(8 8)"/>
  <defs>
    <path id="a" d="M.00000314 6.91168c-.0009439-.27693.21112786-.50807.48711586-.53092L2.3732 6.22149l.98618-2.36789c.11825-.28137.40473-.45411.70877-.42739.30517.02602.5574.24861.62117.54818l.77779 3.67526L7.02934.548647c.06842-.313843.34252-.54024805.66364-.54817083C8.01902-.0115871 8.3088.20672 8.38715.523429L9.90027 6.24538l1.61403.15662c.2778.0269.4888.26195.4857.54105-.0031.27909-.2193.50938-.4977.53007l-2.13561.16326c-.31804.00125-.59705-.21182-.67957-.51897l-.9145-3.45096-1.64186 7.45005c-.07223.3192-.355.5464-.68223.5482-.32813-.0015-.61095-.2313-.67957-.5521l-.98087-4.64556-.29997.71939c-.10807.26077-.36278.43058-.64506.43004L.493755 7.4426c-.278612-.01955-.49443692-.25162-.49375186-.53092z"/>
  </defs>
</svg>

<svg width="28" height="28" viewBox="0 0 28 28" version="1.1" xmlns="http://www.w3.org/2000/svg" xmlns:xlink="http://www.w3.org/1999/xlink">
<title>@$&#9;</title>
<desc>Created using Figma</desc>
<g id="Canvas" transform="translate(-356 -1774)">
<g id="Icon/Presta/White/Comment">
<g id="Icon/Presta/White/Activity">
<g id="Shape">
<use xlink:href="#path0_fill" transform="translate(364 1782)" fill="#202A37"/>
</g>
</g>
</g>
</g>
<defs>
<path id="path0_fill" d="M 3.13859e-06 6.91168C -0.00094077 6.63475 0.211131 6.40361 0.487119 6.38076L 2.3732 6.22149L 3.35938 3.8536C 3.47763 3.57223 3.76411 3.39949 4.06815 3.42621C 4.37332 3.45223 4.62555 3.67482 4.68932 3.97439L 5.46711 7.64965L 7.02934 0.548647C 7.09776 0.234804 7.37186 0.00839895 7.69298 0.000476166C 8.01902 -0.0115871 8.3088 0.20672 8.38715 0.523429L 9.90027 6.24538L 11.5143 6.402C 11.7921 6.4289 12.0031 6.66395 12 6.94305C 11.9969 7.22214 11.7807 7.45243 11.5023 7.47312L 9.36669 7.63638C 9.04865 7.63763 8.76964 7.42456 8.68712 7.11741L 7.77262 3.66645L 6.13076 11.1165C 6.05853 11.4357 5.77576 11.6629 5.44853 11.6647C 5.1204 11.6632 4.83758 11.4334 4.76896 11.1126L 3.78809 6.46704L 3.48812 7.18643C 3.38005 7.4472 3.12534 7.61701 2.84306 7.61647L 0.493755 7.4426C 0.215143 7.42305 -0.00068192 7.19098 3.13859e-06 6.91168Z"/>
</defs>
</svg>
